icons/chevron-double-downleft.svg

<svg width="24" height="25" viewBox="0 0 24 25" fill="none" xmlns="http://www.w3.org/2000/svg">
<path fill-rule="evenodd" clip-rule="evenodd" d="M12.7513 5.83678C13.1656 5.83678 13.5013 6.17257 13.5013 6.58678L13.5013 10.9987L17.9132 10.9987C18.3274 10.9987 18.6632 11.3344 18.6632 11.7487C18.6632 12.1629 18.3274 12.4987 17.9132 12.4987L13.3877 12.4987C13.0133 12.4987 12.6331 12.3728 12.3536 12.0934C12.0827 11.8225 11.9501 11.4462 12.0013 11.0533L12.0013 6.58678C12.0013 6.17257 12.3371 5.83678 12.7513 5.83678ZM13.3612 10.9963C13.3612 10.9963 13.3618 10.9964 13.3629 10.9968L13.3612 10.9963Z" fill="black"/>
<path fill-rule="evenodd" clip-rule="evenodd" d="M8.50867 10.0795C8.92288 10.0795 9.25867 10.4152 9.25867 10.8295L9.25867 15.2413L13.6705 15.2413C14.0848 15.2413 14.4205 15.5771 14.4205 15.9913C14.4205 16.4056 14.0848 16.7413 13.6705 16.7413L9.14506 16.7413C8.77058 16.7413 8.39038 16.6155 8.11092 16.3361C7.84006 16.0652 7.7074 15.6889 7.75867 15.296L7.75867 10.8295C7.75867 10.4152 8.09445 10.0795 8.50867 10.0795ZM9.11849 15.239C9.11851 15.239 9.11912 15.2391 9.12026 15.2395L9.11849 15.239Z" fill="black"/>
</svg>

<svg xmlns="http://www.w3.org/2000/svg" fill="none" viewBox="0 0 24 25">
  <path fill="#000" fill-rule="evenodd" d="M12.751 5.837a.75.75 0 0 1 .75.75v4.412h4.412a.75.75 0 1 1 0 1.5h-4.525a1.45 1.45 0 0 1-1.034-.406 1.232 1.232 0 0 1-.353-1.04V6.587a.75.75 0 0 1 .75-.75Zm.61 5.16h.002-.002Zm-4.852-.917a.75.75 0 0 1 .75.75v4.411h4.412a.75.75 0 1 1 0 1.5H9.145a1.45 1.45 0 0 1-1.034-.405 1.232 1.232 0 0 1-.352-1.04V10.83a.75.75 0 0 1 .75-.75Zm.61 5.159h.001-.002Z" clip-rule="evenodd"/>
</svg>
